X:733
T:Reel 733
M:4/4
K:Gmaj
L:1/8
Bc|d>G (3GGG BGdc|B>G (3GFG DEcB|B>G (3GGG GABG|ADFD =fdcA|BG (3GGG DG (3GFG |BGGB cedc|BAGF GABg|=fdcB cBGA|Bd=fe cded|BdGB c2dc|Bcde fgec| (3BAG AG FDEF|Bcde dBAB|dcde cedc| (3Bcd ef gfed|cBAG FGAc| (3BcB AG =f2dB|cEEG cBcA|BcBA GFGB|c=fec c2dc| (3BcB AG =fAFG|BGEG D2FG| (3BcB  (3ABA  (3Bcd eg| (3BcB AG FEEF|
